Papirus/64x64/apps/borderlands-2.svg

<?xml version="1.0" encoding="UTF-8" standalone="no"?>
<svg
   id="_图层_1"
   version="1.1"
   viewBox="0 0 64 64" width="64" height="64"
   sodipodi:docname="borderlands-2.svg"
   xml:space="preserve"
   inkscape:version="1.4 (e7c3feb100, 2024-10-09)"
   xmlns:inkscape="http://www.inkscape.org/namespaces/inkscape"
   xmlns:sodipodi="http://sodipodi.sourceforge.net/DTD/sodipodi-0.dtd"
   xmlns="http://www.w3.org/2000/svg"
   xmlns:svg="http://www.w3.org/2000/svg"><sodipodi:namedview
     id="namedview26"
     pagecolor="#505050"
     bordercolor="#eeeeee"
     borderopacity="1"
     inkscape:showpageshadow="0"
     inkscape:pageopacity="0"
     inkscape:pagecheckerboard="0"
     inkscape:deskcolor="#505050"
     inkscape:zoom="10.6875"
     inkscape:cx="32"
     inkscape:cy="28.912281"
     inkscape:window-width="1920"
     inkscape:window-height="939"
     inkscape:window-x="0"
     inkscape:window-y="34"
     inkscape:window-maximized="1"
     inkscape:current-layer="_图层_1" /><!-- Generator: Adobe Illustrator 29.0.1, SVG Export Plug-In . SVG Version: 2.1.0 Build 192)  --><defs
     id="defs6"><style
       id="style1">
      .st0 {
        fill-opacity: .5;
      }

      .st0, .st1, .st2, .st3, .st4, .st5, .st6, .st7 {
        fill: #fff;
      }

      .st8 {
        fill: #133c9a;
      }

      .st2, .st9 {
        display: none;
      }

      .st3 {
        fill-opacity: .2;
      }

      .st4 {
        fill-opacity: .9;
      }

      .st10 {
        fill: #3370ff;
      }

      .st11 {
        fill: url(#_未命名的渐变_3);
      }

      .st12 {
        fill: url(#_未命名的渐变);
      }

      .st5 {
        fill-opacity: .3;
      }

      .st6 {
        fill-opacity: 0;
      }

      .st7 {
        fill-opacity: .7;
      }

      .st13 {
        fill: #00d6b9;
      }

      .st14 {
        fill: url(#_未命名的渐变_2);
      }
    </style><radialGradient
       id="_未命名的渐变"
       data-name="未命名的渐变"
       cx="123.9"
       cy="-40.2"
       fx="123.9"
       fy="-40.2"
       r="59.4"
       gradientTransform="translate(-26.8 25.5) scale(.6 -.7)"
       gradientUnits="userSpaceOnUse"><stop
         offset="0"
         stop-color="#db202e"
         id="stop1" /><stop
         offset="1"
         stop-color="#e01b24"
         id="stop2" /></radialGradient><radialGradient
       id="_未命名的渐变_2"
       data-name="未命名的渐变 2"
       cx="67.6"
       cy="26.8"
       fx="67.6"
       fy="26.8"
       r="105.2"
       gradientTransform="translate(-26.6 25.3) scale(.6 -.7)"
       gradientUnits="userSpaceOnUse"><stop
         offset="0"
         stop-color="#ffb648"
         id="stop3" /><stop
         offset="1"
         stop-color="#ff7800"
         stop-opacity="0"
         id="stop4" /></radialGradient><radialGradient
       id="_未命名的渐变_3"
       data-name="未命名的渐变 3"
       cx="61.7"
       cy="18.6"
       fx="61.7"
       fy="18.6"
       r="68"
       gradientTransform="translate(-26.8 25.8) scale(.6 -.7)"
       gradientUnits="userSpaceOnUse"><stop
         offset="0"
         stop-color="#c64600"
         id="stop5" /><stop
         offset="1"
         stop-color="#a51d2d"
         id="stop6" /></radialGradient><style
       id="style1-2">
      .st0, .st1, .st2, .st3, .st4, .st5 {
        isolation: isolate;
      }

      .st0, .st1, .st6, .st7, .st5, .st8 {
        display: none;
      }

      .st0, .st3, .st4, .st5 {
        opacity: .2;
      }

      .st1 {
        opacity: .1;
      }

      .st1, .st9, .st2, .st4, .st5 {
        fill: #fff;
      }

      .st10 {
        fill: #3f3f3f;
      }

      .st2 {
        opacity: .3;
      }

      .st6 {
        fill: #505d6e;
      }

      .st11, .st8 {
        fill: #ffcca3;
      }

      .st12 {
        fill: #fed24c;
      }

      .st13 {
        fill: #c2352a;
      }
    </style></defs><path
     class="st1"
     d="M 47.5,64.1 H 13.8 C 6.2,64.1 0,57.8 0,50.3 V 13.7 C 0,6.2 6.2,0 13.7,0 H 50.3 C 57.8,0 64,6.2 64,13.7 V 50.3 C 64,57.8 57.8,64 50.3,64 h -2.9 0.1 z"
     id="path6"
     style="display:inline;opacity:1;fill:#aa3131;fill-opacity:1" /><g
     id="g27"
     transform="matrix(1.1453634,0,0,1.1477378,-4.6048454,-4.6523546)"><path
       style="opacity:0.2"
       d="m 36.564,11.484 c -2.322,-0.498 -4.749,-0.614 -7.119,-0.337 -3.44,0.402 -6.771,1.63 -9.662,3.562 -2.858,1.909 -5.205,4.426 -6.896,7.393 -0.648,1.136 -1.2,2.349 -1.642,3.606 -0.308,0.88 -0.589,1.898 -0.782,2.823 -1.004,4.823 -0.366,9.796 1.823,14.217 l 0.177,0.32 c 0,0 18.565,-26.444 18.658,-26.583 0.577,-0.862 1.166,-1.496 1.83,-1.965 0.159,-0.112 0.549,-0.335 0.722,-0.413 0.799,-0.357 1.644,-0.463 2.592,-0.319 0.659,0.098 0.856,0.157 1.436,0.385 0.892,0.349 1.574,0.863 2.087,1.572 0.111,0.154 0.337,0.542 0.419,0.719 0.34,0.738 0.534,1.581 0.601,2.616 l 3.014,32.436 0.188,-0.097 c 1.059,-0.681 2.119,-1.507 3.058,-2.382 2.419,-2.255 4.281,-5.029 5.466,-8.143 0.291,-0.767 0.901,-2.978 0.997,-3.407 0.88,-4.188 0.518,-8.515 -1.049,-12.512 -0.638,-1.628 -1.49,-3.212 -2.5,-4.645 -2.735,-3.882 -6.611,-6.752 -11.107,-8.225 -0.719,-0.235 -1.564,-0.462 -2.311,-0.621 z m -0.6,5.857 c -1.664,-0.173 -2.73,1.003 -3.639,2.24 -4.307,7.456 -8.898,15.532 -13.557,23.845 -1.34,2.39 -2.653,4.742 -2.657,4.76 -0.004,0.015 0.053,0.079 0.282,0.31 2.625,2.646 5.873,4.572 9.462,5.612 0.82,0.236 2.18,0.568 3.628,0.741 2.78,0.33 5.569,0.119 8.279,-0.627 l 0.201,-0.064 0.254,-30.525 C 38.07,20.919 38.201,18.092 35.964,17.341 Z"
       id="path3" /><path
       style="fill:#f7b400"
       d="m 36.564,10.484 c -2.322,-0.4979 -4.749,-0.6142 -7.119,-0.337 -3.44,0.402 -6.771,1.63 -9.662,3.562 -2.858,1.909 -5.205,4.426 -6.896,7.393 -0.648,1.136 -1.2,2.349 -1.642,3.606 -0.308,0.88 -0.589,1.898 -0.782,2.823 -1.004,4.823 -0.366,9.796 1.823,14.217 l 0.177,0.32 c 0,0 18.565,-26.444 18.658,-26.583 0.577,-0.862 1.166,-1.496 1.83,-1.965 0.159,-0.112 0.549,-0.335 0.722,-0.413 0.799,-0.357 1.644,-0.463 2.592,-0.319 0.659,0.098 0.856,0.157 1.436,0.385 0.892,0.349 1.574,0.863 2.087,1.572 0.111,0.154 0.337,0.542 0.419,0.719 0.34,0.738 0.534,1.581 0.601,2.616 l 3.014,32.436 0.188,-0.097 c 1.059,-0.681 2.119,-1.507 3.058,-2.382 2.419,-2.255 4.281,-5.029 5.466,-8.143 0.291,-0.767 0.901,-2.978 0.997,-3.407 0.88,-4.188 0.518,-8.515 -1.049,-12.512 -0.638,-1.628 -1.49,-3.212 -2.5,-4.645 -2.735,-3.882 -6.611,-6.752 -11.107,-8.225 -0.719,-0.235 -1.564,-0.462 -2.311,-0.621 z m -0.6,5.857 c -1.664,-0.173 -2.73,1.003 -3.639,2.24 -4.307,7.456 -8.898,15.532 -13.557,23.845 -1.34,2.39 -2.653,4.742 -2.657,4.76 -0.004,0.015 0.053,0.079 0.282,0.31 2.625,2.646 5.873,4.572 9.462,5.612 0.82,0.236 2.18,0.568 3.628,0.741 2.78,0.33 5.569,0.119 8.279,-0.627 l 0.201,-0.064 0.254,-30.525 C 38.07,19.919 38.201,17.092 35.964,16.341 Z"
       id="path4" /><path
       style="opacity:0.2;fill:#ffffff"
       d="m 31.23,10.014 c 1.792,-0.0612 3.593,0.097 5.334,0.47 0.747,0.159 1.592,0.386 2.311,0.621 4.496,1.473 8.372,4.343 11.107,8.225 1.01,1.433 1.862,3.017 2.5,4.645 1.061,2.704 1.555,5.562 1.5,8.423 -0.067,-2.525 -0.563,-5.034 -1.5,-7.423 -0.638,-1.628 -1.49,-3.212 -2.5,-4.645 -2.735,-3.882 -6.611,-6.752 -11.107,-8.225 -0.719,-0.235 -1.564,-0.462 -2.311,-0.621 -2.322,-0.498 -4.749,-0.615 -7.119,-0.338 -3.44,0.402 -6.771,1.631 -9.662,3.563 -2.858,1.909 -5.205,4.426 -6.896,7.393 -0.648,1.136 -1.201,2.348 -1.643,3.605 -0.308,0.88 -0.588,1.899 -0.781,2.824 -0.249,1.194 -0.395,2.397 -0.443,3.598 -0.009,-1.533 0.125,-3.072 0.443,-4.598 0.193,-0.925 0.473,-1.944 0.781,-2.824 0.442,-1.257 0.995,-2.469 1.643,-3.605 1.691,-2.967 4.038,-5.484 6.896,-7.393 2.891,-1.932 6.222,-3.161 9.662,-3.563 0.593,-0.069 1.188,-0.112 1.785,-0.132 z m 4.137,6.322 c 0.19,-0.018 0.39,-0.016 0.598,0.006 2.237,0.751 2.105,3.577 2.252,6.291 l -0.008,0.855 c -0.135,-2.668 -0.047,-5.409 -2.244,-6.146 -1.664,-0.173 -2.732,1.001 -3.641,2.238 -4.307,7.456 -8.897,15.533 -13.556,23.846 -1.164,2.076 -2.024,3.621 -2.307,4.135 -0.022,-0.023 -0.046,-0.043 -0.068,-0.065 -0.229,-0.231 -0.286,-0.295 -0.282,-0.31 0.004,-0.018 1.317,-2.37 2.657,-4.76 4.659,-8.313 9.249,-16.39 13.556,-23.846 0.796,-1.082 1.712,-2.118 3.043,-2.244 z"
       id="path5" /></g></svg>

<svg xmlns="http://www.w3.org/2000/svg" width="64" height="64" version="1">
 <circle style="opacity:0.2" cx="-32" cy="33" r="28" transform="scale(-1,1)"/>
 <circle style="fill:#aa3131" cx="-32" cy="32" r="28" transform="scale(-1,1)"/>
 <path style="opacity:0.1;fill:#ffffff" d="M 32,4 A 28,28 0 0 1 60,32 28,28 0 0 1 59.978,32.586 28,28 0 0 0 32,5 28,28 0 0 0 4.021,32.414 28,28 0 0 1 4,32 28,28 0 0 1 32,4 Z"/>
 <path style="opacity:0.2" d="M 36.564,11.484 C 34.242,10.986 31.815,10.87 29.445,11.147 26.005,11.549 22.674,12.777 19.783,14.709 16.925,16.618 14.578,19.135 12.887,22.102 12.239,23.238 11.687,24.451 11.245,25.708 10.937,26.588 10.656,27.606 10.463,28.531 9.459,33.354 10.097,38.327 12.286,42.748 L 12.463,43.068 C 12.463,43.068 31.028,16.624 31.121,16.485 31.698,15.623 32.287,14.989 32.951,14.52 33.11,14.408 33.5,14.185 33.673,14.107 34.472,13.75 35.317,13.644 36.265,13.788 36.924,13.886 37.121,13.945 37.701,14.173 38.593,14.522 39.275,15.036 39.788,15.745 39.899,15.899 40.125,16.287 40.207,16.464 40.547,17.202 40.741,18.045 40.808,19.08 L 43.822,51.516 44.01,51.419 C 45.069,50.738 46.129,49.912 47.068,49.037 49.487,46.782 51.349,44.008 52.534,40.894 52.825,40.127 53.435,37.916 53.531,37.487 54.411,33.299 54.049,28.972 52.482,24.975 51.844,23.347 50.992,21.763 49.982,20.33 47.247,16.448 43.371,13.578 38.875,12.105 38.156,11.87 37.311,11.643 36.564,11.484 Z M 35.964,17.341 C 34.3,17.168 33.234,18.344 32.325,19.581 28.018,27.037 23.427,35.113 18.768,43.426 17.428,45.816 16.115,48.168 16.111,48.186 16.107,48.201 16.164,48.265 16.393,48.496 19.018,51.142 22.266,53.068 25.855,54.108 26.675,54.344 28.035,54.676 29.483,54.849 32.263,55.179 35.052,54.968 37.762,54.222 L 37.963,54.158 38.217,23.633 C 38.07,20.919 38.201,18.092 35.964,17.341 Z"/>
 <path style="fill:#f7b400" d="M 36.564,10.484 C 34.242,9.9861 31.815,9.8698 29.445,10.147 26.005,10.549 22.674,11.777 19.783,13.709 16.925,15.618 14.578,18.135 12.887,21.102 12.239,22.238 11.687,23.451 11.245,24.708 10.937,25.588 10.656,26.606 10.463,27.531 9.459,32.354 10.097,37.327 12.286,41.748 L 12.463,42.068 C 12.463,42.068 31.028,15.624 31.121,15.485 31.698,14.623 32.287,13.989 32.951,13.52 33.11,13.408 33.5,13.185 33.673,13.107 34.472,12.75 35.317,12.644 36.265,12.788 36.924,12.886 37.121,12.945 37.701,13.173 38.593,13.522 39.275,14.036 39.788,14.745 39.899,14.899 40.125,15.287 40.207,15.464 40.547,16.202 40.741,17.045 40.808,18.08 L 43.822,50.516 44.01,50.419 C 45.069,49.738 46.129,48.912 47.068,48.037 49.487,45.782 51.349,43.008 52.534,39.894 52.825,39.127 53.435,36.916 53.531,36.487 54.411,32.299 54.049,27.972 52.482,23.975 51.844,22.347 50.992,20.763 49.982,19.33 47.247,15.448 43.371,12.578 38.875,11.105 38.156,10.87 37.311,10.643 36.564,10.484 Z M 35.964,16.341 C 34.3,16.168 33.234,17.344 32.325,18.581 28.018,26.037 23.427,34.113 18.768,42.426 17.428,44.816 16.115,47.168 16.111,47.186 16.107,47.201 16.164,47.265 16.393,47.496 19.018,50.142 22.266,52.068 25.855,53.108 26.675,53.344 28.035,53.676 29.483,53.849 32.263,54.179 35.052,53.968 37.762,53.222 L 37.963,53.158 38.217,22.633 C 38.07,19.919 38.201,17.092 35.964,16.341 Z"/>
 <path style="opacity:0.2;fill:#ffffff" d="M 31.23,10.014 C 33.022,9.9528 34.823,10.111 36.564,10.484 37.311,10.643 38.156,10.87 38.875,11.105 43.371,12.578 47.247,15.448 49.982,19.33 50.992,20.763 51.844,22.347 52.482,23.975 53.543,26.679 54.037,29.537 53.982,32.398 53.915,29.873 53.419,27.364 52.482,24.975 51.844,23.347 50.992,21.763 49.982,20.33 47.247,16.448 43.371,13.578 38.875,12.105 38.156,11.87 37.311,11.643 36.564,11.484 34.242,10.986 31.815,10.869 29.445,11.146 26.005,11.548 22.674,12.777 19.783,14.709 16.925,16.618 14.578,19.135 12.887,22.102 12.239,23.238 11.686,24.45 11.244,25.707 10.936,26.587 10.656,27.606 10.463,28.531 10.214,29.725 10.068,30.928 10.02,32.129 10.011,30.596 10.145,29.057 10.463,27.531 10.656,26.606 10.936,25.587 11.244,24.707 11.686,23.45 12.239,22.238 12.887,21.102 14.578,18.135 16.925,15.618 19.783,13.709 22.674,11.777 26.005,10.548 29.445,10.146 30.038,10.077 30.633,10.034 31.23,10.014 Z M 35.367,16.336 C 35.557,16.318 35.757,16.32 35.965,16.342 38.202,17.093 38.07,19.919 38.217,22.633 L 38.209,23.488 C 38.074,20.82 38.162,18.079 35.965,17.342 34.301,17.169 33.233,18.343 32.324,19.58 28.017,27.036 23.427,35.113 18.768,43.426 17.604,45.502 16.744,47.047 16.461,47.561 16.439,47.538 16.415,47.518 16.393,47.496 16.164,47.265 16.107,47.201 16.111,47.186 16.115,47.168 17.428,44.816 18.768,42.426 23.427,34.113 28.017,26.036 32.324,18.58 33.12,17.498 34.036,16.462 35.367,16.336 Z"/>
</svg>
